icons/Call-Missed.svg

<svg width="24" height="24" viewBox="0 0 24 24" fill="none" xmlns="http://www.w3.org/2000/svg">
<g id="Call-Missed">
<path id="Vector" d="M21.53 18.94V16.82C21.53 15.6982 21.0844 14.6222 20.2911 13.829C19.4978 13.0357 18.4219 12.59 17.3 12.59H6.70002C5.57815 12.59 4.50224 13.0357 3.70896 13.829C2.91568 14.6222 2.47002 15.6982 2.47002 16.82V18.94C2.46868 19.0796 2.49519 19.218 2.54799 19.3472C2.60078 19.4765 2.67881 19.5938 2.77751 19.6925C2.87621 19.7912 2.99359 19.8693 3.1228 19.9221C3.25201 19.9749 3.39045 20.0014 3.53002 20H6.70002C6.83959 20.0014 6.97803 19.9749 7.10724 19.9221C7.23645 19.8693 7.35383 19.7912 7.45253 19.6925C7.55123 19.5938 7.62925 19.4765 7.68205 19.3472C7.73485 19.218 7.76135 19.0796 7.76002 18.94V17.88C7.76263 17.5997 7.87514 17.3316 8.07337 17.1334C8.27159 16.9352 8.5397 16.8226 8.82002 16.82H15.18C15.4603 16.8226 15.7284 16.9352 15.9267 17.1334C16.1249 17.3316 16.2374 17.5997 16.24 17.88V18.94C16.2387 19.0796 16.2652 19.218 16.318 19.3472C16.3708 19.4765 16.4488 19.5938 16.5475 19.6925C16.6462 19.7912 16.7636 19.8693 16.8928 19.9221C17.022 19.9749 17.1604 20.0014 17.3 20H20.47C20.6096 20.0014 20.748 19.9749 20.8772 19.9221C21.0064 19.8693 21.1238 19.7912 21.2225 19.6925C21.3212 19.5938 21.3993 19.4765 21.4521 19.3472C21.5049 19.218 21.5314 19.0796 21.53 18.94Z" stroke="#00153F" stroke-width="1.5" stroke-linecap="round" stroke-linejoin="round"/>
<path id="Vector_2" d="M8 5.01001L12.99 10L14.99 7.99001" stroke="#00153F" stroke-width="1.5" stroke-linecap="round" stroke-linejoin="round"/>
<path id="Vector_3" d="M8 8.01001V5.01001H10.99" stroke="#00153F" stroke-width="1.5" stroke-linecap="round" stroke-linejoin="round"/>
</g>
</svg>

<svg xmlns="http://www.w3.org/2000/svg" fill="none" viewBox="0 0 24 24"><g stroke="currentColor" stroke-linecap="round" stroke-linejoin="round" stroke-width="1.5"><path d="M21.53 18.94v-2.12a4.23 4.23 0 0 0-4.23-4.23H6.7a4.23 4.23 0 0 0-4.23 4.23v2.12A1.05 1.05 0 0 0 3.53 20H6.7a1.049 1.049 0 0 0 1.06-1.06v-1.06a1.07 1.07 0 0 1 1.06-1.06h6.36a1.07 1.07 0 0 1 1.06 1.06v1.06A1.05 1.05 0 0 0 17.3 20h3.17a1.048 1.048 0 0 0 1.06-1.06ZM8 5.01 12.99 10l2-2.01"/><path d="M8 8.01v-3h2.99"/></g></svg>
